public/images/poses-lg/CrescentMoon.svg

<svg width="800" height="800" fill="none" xmlns="http://www.w3.org/2000/svg"><g clip-path="url(#a)" stroke="#000" stroke-width="5" stroke-miterlimit="10"><path d="M362.538 188.842c-12.562-8.039-47.478-20.335-54.774 18.849-4.633 24.871-15.025 61.101-37.32 69.947-22.295 8.848 24.135 39.727 51.309 23.682 27.172-16.045 39.662-47.815 31.074-72.846-8.589-25.029 9.711-39.632 9.711-39.632Z" fill="#040004"/><path d="M401.447 221.601c-8.083-1.702-11.07-8.689-18.693-13.457-12.106-7.573-10.973-28.987.484-39.904 15.122-14.415 72.448 33.53 65.193 43.173-4.3 5.711-17.778 11.269-33.267 10.415-4.977-.274-13.717-.227-13.717-.227Z" fill="#fff"/><path d="M401.447 221.601c-8.083-1.702-11.07-8.689-18.693-13.457-12.106-7.573-10.973-28.987.484-39.904 15.122-14.415 72.448 33.53 65.193 43.173-4.3 5.711-17.778 11.269-33.267 10.415-4.977-.274-13.717-.227-13.717-.227Z"/><path d="M395.793 167.564c9.747 8.742 21.156 31.207 6.707 40.35-16.247 10.276-2.736 12.012.892 13.231 3.628 1.22 14.732-1.015 14.225.967-.505 1.985-25.028 14.351-41.057 3.846-16.027-10.503-20.352-20.265-18.091-31.181 2.262-10.915 15.353-26.349 26.581-29.508 11.227-3.16 10.743 2.295 10.743 2.295Z" fill="#040004"/><path d="M286.724 14.713s-9.142 28.475 29.712 54.76c0 0 37.111 54.394 55.865 71.174.835.748 1.517 1.628 1.982 2.631 5.433 11.759 40.253 88.311 38.147 114.568-2.286 28.475 6.857 32.856 27.426 56.951 20.57 24.094 16 87.615 16 87.615s-38.853 43.808-11.429 78.855c0 0 6.858 13.142 4.571 24.094-1.953 9.353-8.898 71.364-10.89 89.323a19.292 19.292 0 0 1-2.876 8.244c-7.248 11.406-23.947 56.858-18.232 138.997 0 0-13.714 39.427 0 46 11.197 5.369 66.582 4.888 86.532 4.534 4.59-.082 8.896-2.576 10.668-6.635 2.074-4.735 1.078-8.852-3.493-8.852-7.339 0-32.521-6.793-50.288-13.04-10.46-3.675-16.348-14.305-13.722-24.681l32.012-126.56s57.139-159.9 54.853-203.708c0 0 15.999-129.233-45.711-162.09 0 0-38.854-10.951-54.852-52.57-15.999-41.618-34.285-67.902-59.424-94.187-25.142-26.285-45.712-43.808-45.712-43.808s-29.711-74.471-41.139-41.615Z" fill="#fff"/><path d="M286.724 14.713s-9.142 28.475 29.712 54.76c0 0 37.111 54.394 55.865 71.174.835.748 1.517 1.628 1.982 2.631 5.433 11.759 40.253 88.311 38.147 114.568-2.286 28.475 6.857 32.856 27.426 56.951 20.57 24.094 16 87.615 16 87.615s-38.853 43.808-11.429 78.855c0 0 6.858 13.142 4.571 24.094-1.953 9.353-8.898 71.364-10.89 89.323a19.292 19.292 0 0 1-2.876 8.244c-7.248 11.406-23.947 56.858-18.232 138.997 0 0-13.714 39.427 0 46 11.197 5.369 66.582 4.888 86.532 4.534 4.59-.082 8.896-2.576 10.668-6.635 2.074-4.735 1.078-8.852-3.493-8.852-7.339 0-32.521-6.793-50.288-13.04-10.46-3.675-16.348-14.305-13.722-24.681l32.012-126.56s57.139-159.9 54.853-203.708c0 0 15.999-129.233-45.711-162.09 0 0-38.854-10.951-54.852-52.57-15.999-41.618-34.285-67.902-59.424-94.187-25.142-26.285-45.712-43.808-45.712-43.808s-29.711-74.471-41.139-41.615Z"/><path d="M478.531 243.167s19.426 40.966-47.334 61.774M455.855 402.414s50.281-13.14 77.709 4.381M417.002 741.927s19.117 2.191 30.129-4.38M411.924 247.873l5.078 18.737M411.924 247.873l5.078 18.737"/></g><defs><clipPath id="a"><path fill="#fff" d="M0 0h800v800H0z"/></clipPath></defs></svg>

<svg width="800" height="800" viewBox="0 0 800 800" fill="none" xmlns="http://www.w3.org/2000/svg">
<g clip-path="url(#clip0_298_7917)">
<path d="M362.538 188.842C349.976 180.803 315.06 168.507 307.764 207.691C303.131 232.562 292.739 268.792 270.444 277.638C248.149 286.486 294.579 317.365 321.753 301.32C348.925 285.275 361.415 253.505 352.827 228.474C344.238 203.445 362.538 188.842 362.538 188.842Z" fill="#040004" stroke="black" stroke-width="5" stroke-miterlimit="10"/>
<path d="M401.447 221.601C393.364 219.899 390.377 212.912 382.754 208.144C370.648 200.571 371.781 179.157 383.238 168.24C398.36 153.825 455.686 201.77 448.431 211.413C444.131 217.124 430.653 222.682 415.164 221.828C410.187 221.554 401.447 221.601 401.447 221.601Z" fill="white" stroke="black" stroke-width="5" stroke-miterlimit="10"/>
<path d="M401.447 221.601C393.364 219.899 390.377 212.912 382.754 208.144C370.648 200.571 371.781 179.157 383.238 168.24C398.36 153.825 455.686 201.77 448.431 211.413C444.131 217.124 430.653 222.682 415.164 221.828C410.187 221.554 401.447 221.601 401.447 221.601Z" stroke="black" stroke-width="5" stroke-miterlimit="10"/>
<path d="M395.793 167.564C405.54 176.306 416.949 198.771 402.5 207.914C386.253 218.19 399.764 219.926 403.392 221.145C407.02 222.365 418.124 220.13 417.617 222.112C417.112 224.097 392.589 236.463 376.56 225.958C360.533 215.455 356.208 205.693 358.469 194.777C360.731 183.862 373.822 168.428 385.05 165.269C396.277 162.109 395.793 167.564 395.793 167.564Z" fill="#040004" stroke="black" stroke-width="5" stroke-miterlimit="10"/>
<path d="M286.724 14.7126C286.724 14.7126 277.582 43.1878 316.436 69.4721C316.436 69.4721 353.547 123.867 372.301 140.647C373.136 141.395 373.818 142.275 374.283 143.278C379.716 155.037 414.536 231.589 412.43 257.846C410.144 286.321 419.287 290.702 439.856 314.797C460.426 338.891 455.856 402.412 455.856 402.412C455.856 402.412 417.003 446.22 444.427 481.267C444.427 481.267 451.285 494.409 448.998 505.361C447.045 514.714 440.1 576.725 438.108 594.684C437.787 597.602 436.823 600.421 435.232 602.928C427.984 614.334 411.285 659.786 417 741.925C417 741.925 403.286 781.352 417 787.925C428.197 793.294 483.582 792.813 503.532 792.459C508.122 792.377 512.428 789.883 514.2 785.824C516.274 781.089 515.278 776.972 510.707 776.972C503.368 776.972 478.186 770.179 460.419 763.932C449.959 760.257 444.071 749.627 446.697 739.251L478.709 612.691C478.709 612.691 535.848 452.791 533.562 408.983C533.562 408.983 549.561 279.75 487.851 246.893C487.851 246.893 448.997 235.942 432.999 194.323C417 152.705 398.714 126.421 373.575 100.136C348.433 73.8509 327.863 56.328 327.863 56.328C327.863 56.328 298.152 -18.1433 286.724 14.7126Z" fill="white" stroke="black" stroke-width="5" stroke-miterlimit="10"/>
<path d="M286.724 14.7126C286.724 14.7126 277.582 43.1878 316.436 69.4721C316.436 69.4721 353.547 123.867 372.301 140.647C373.136 141.395 373.818 142.275 374.283 143.278C379.716 155.037 414.536 231.589 412.43 257.846C410.144 286.321 419.287 290.702 439.856 314.797C460.426 338.891 455.856 402.412 455.856 402.412C455.856 402.412 417.003 446.22 444.427 481.267C444.427 481.267 451.285 494.409 448.998 505.361C447.045 514.714 440.1 576.725 438.108 594.684C437.787 597.602 436.823 600.421 435.232 602.928C427.984 614.334 411.285 659.786 417 741.925C417 741.925 403.286 781.352 417 787.925C428.197 793.294 483.582 792.813 503.532 792.459C508.122 792.377 512.428 789.883 514.2 785.824C516.274 781.089 515.278 776.972 510.707 776.972C503.368 776.972 478.186 770.179 460.419 763.932C449.959 760.257 444.071 749.627 446.697 739.251L478.709 612.691C478.709 612.691 535.848 452.791 533.562 408.983C533.562 408.983 549.561 279.75 487.851 246.893C487.851 246.893 448.997 235.942 432.999 194.323C417 152.705 398.714 126.421 373.575 100.136C348.433 73.8509 327.863 56.328 327.863 56.328C327.863 56.328 298.152 -18.1433 286.724 14.7126Z" stroke="black" stroke-width="5" stroke-miterlimit="10"/>
<path d="M478.531 243.167C478.531 243.167 497.957 284.133 431.197 304.941" stroke="black" stroke-width="5" stroke-miterlimit="10"/>
<path d="M455.855 402.414C455.855 402.414 506.136 389.274 533.564 406.795" stroke="black" stroke-width="5" stroke-miterlimit="10"/>
<path d="M417.002 741.927C417.002 741.927 436.119 744.118 447.131 737.547" stroke="black" stroke-width="5" stroke-miterlimit="10"/>
<path d="M411.924 247.873L417.002 266.61" stroke="black" stroke-width="5" stroke-miterlimit="10"/>
<path d="M411.924 247.873L417.002 266.61" stroke="black" stroke-width="5" stroke-miterlimit="10"/>
</g>
<defs>
<clipPath id="clip0_298_7917">
<rect width="800" height="800" fill="white"/>
</clipPath>
</defs>
</svg>
